!!!COM: Robert Schumann
!!!CNT: Deutscher
!!!TXO: Deutsche 
!!!OTL: Nun hast du mir den ersten Schmerz getan.
!!!OPR: Frauenliebe und Leben
!!!OPS: Opus 42
!!!ONM: No. 8
!!!LYR: Chamisso
!!!ENC: Brian Bice
!!!YOR: Sa2mtliche Lieder, vol. 1, C.F. Peters
!!!ODT: 1840/
!!NB: Vocal melody and text only encoded.
**kern	**silbe
*clefG2	*
*k[b-]	*
*M4/4	*
=1	=1
2r	.
{2a	{Nun
=2	=2
8.d	hast
16d	du
8d	mir
8d	den
8d	er-
8d	-sten
8.d	Schmerz
16e	ge-
=3	=3
2f}	-tan,}
{4f	{der
8g	a-
8g	-ber
=4	=4
2a}	traf.}
4r	.
{4a	{Du
=5	=5
8.a	schla2fst,
16d	du
8d	har-
8d	-ter,
8d	un-
8d	-barm-
8.d	-herz'-
16e	-ger
=6	=6
4.f}	Mann,}
{8f	{den
4.f	To-
8g	-des-
=7	=7
2a}	-schlaf.}
4r	.
8r	.
{8a	{Es
=8	=8
8a	blik-
8a	-ket
8a	die
8a	Ver-
8.g	-lass'-
16g	-ne
8f#	vor
8g	sich
=9	=9
2f#}	hin,}
8r	.
{8b-	{die
8b-	Welt
8b-	ist
=10	=10
[2dd-	leer,
4.dd-]	|
8cc	ist
=11	=11
4bn}	leer.}
4r	.
4r	.
8r	.
{8cc	{Ge-
=12	=12
4.dd	-lie-
8dd	-bet
8cc	hab'
8cc	ich
8cc	und
8cc	ge-
=13	=13
4bn}	-lebt,}
4r	.
8r	.
{8a-	{ich
8a-	bin
8a-	nicht
=14	=14
[2g	le-
4.g]	|
8d	-bend
=15	=15
2e-}	mehr.}
4r	.
{4d	{Ich
=16	=16
8c#	zieh'
8c#	mich
8c#	in
8c#	mein
4.d	Inn'-
8d	-res
=17	=17
4.en	still
8en	zu-
4.d}	-ru2ck,}
{8d	{der
=18	=18
2.c#	Schlei-
4d	-er
=19	=19
4e}	fa2llt,}
4r	.
4r	.
{4f	{da
=20	=20
8e	hab'
8e	ich
8e	dich
8e	und
8e	mein
8e	ver-
8.g	-lor'-
16e	-nes
=21	=21
2c#}	Glu2ck,}
{4c#	{du
8d	mei-
8d	-ne
=22	=22
2e;}	Welt!}
2r	.
*-	*-
